X:12118
T:O 'Tis Love,bass part. JNu.14
M:6/8
Q:100
S:James Nuttall MS,c1830?,Rossendale,East Lancs.
R:Air
O:England
A:East Lancashire
Z:Chris Partington
K:D
"thirdo,read as bass clef".B2z.B2z|.B2z.B2z|.B2z.B2z|.A2z.A2z|.A2z.A2z|.
A2z.A2z|f2ff2f|B3|
|!
B2B|.B2z.B2z|.B2z.A2z|.A2z.A2z|B2zB2z|B2zB2z|A2zA2z|f2ff2f|BdfB2||!
z|G2zG2z|F2zF2z|F2zF2z|F2zF2z|G2zG2z|F2zF2z|F2zf2f|B2BB3|]


